!!!OTL: ANKE VAN THARAW
!!!ARE: Europa, Mitteleuropa, Deutschland
!!!SCT: F0137
!!!YEM: Copyright 1995, estate of Helmut Schaffrath.
**kern
*ICvox
*Ivox
*M3/4
*k[f#c#g#]
*A:
=1
{4ee
4ee
4b
=2
4cc#
4cc#
4b
=3
4a
8a
8b
4cc#
=4
2b
4r}
=5
{4ee
4ee
4b
=6
4cc#
4cc#
4b
=7
4a
8a
8b
4cc#
=8
2b
4r}
=9
{4cc#
4cc#
4dd
=10
4ee
4ee
4dd
=11
4cc#
8b
8a
8b
8cc#
=12
2a
4r}
=13
{4cc#
4cc#
4dd
=14
4ee
4ee
4dd
=15
4cc#
8b
8a
8b
8cc#
=16
2a
4r}
==
!!!AGN: Liebes - Lied, Treue
!!!ONB: ESAC (Essen Associative Code) Database: FINK
!!!AMT: simple triple
!!!AIN: vox
!!!EED: Helmut Schaffrath
!!!EEV: 1.0
*-
